X:081 
T:Jack the Deckhand* (reel)
F:file ID: cre.5/081jack_d
B:CRE5.195 (gan ainm)
M:4/4
Q:180
R:reel
K:G
e3d Bcd2|edBe dBG2|efed Bdd2|edgd BAA2|
e2 ed Bcd2|eddB dB G2|efed Bddf|edgd BAA||
f|g2eg fdef|gfga bgef|g2bg fged|BAGA Bdef|
g2bg egd2|gfgb a2ga|bgaf gfed|BABd efgf|]

%%%

